X:1
T:Een kindeken is ons geboren
T:Een kindeken is ons geboren
T:Cornelis De Leeuw Edammer
C:Cornelis De Leeuw Edammer
%%score [ 1 2 3 ]
L:1/8
Q:1/4=170
M:2/2
K:D
V:1 treble nm="Soprano" snm="S"
V:2 treble nm="Alto" snm="A"
V:3 treble-8 nm="Baritone" snm="B"
V:1
"^Source: Le VIIième Livre des Chansons---Louvain---P.Phalèse---1560.\nEditor André Vierendeels (09/02/96)" z4 D4 | %1
w: Een|
 A2 A2 A2 A2 | d6 c2 | B4 A2 G2 | F4 G4 | F6 E2 | F4 z2 D2 | A4 A4 | d6 c2 | B4 A2 G2 | F4 G4 | %11
w: kin- de- ken is|ons ge-|bo- * *|ren in|Beth- le-|'em, des|hadd' He-|ro- des|t'o- * *|ren, dat|
 F4 E4 | D8 | z4 d4 | d6 d2 | e4 d4 | c8 | B4 B2 B2 | c2 d2 e2 c2 | d4 B4 | A8- | A4 A4 | d6 d2 | %23
w: bleek aen|hem,|die|Wij- zen|son- der|schroo-|men qua- men|te _ Je- *|ru- sa-|lem,|_ toen|Je- zus|
 e4 d4 | c8 | B4 B4 | c4 e4 | d4 B4 | A8 | z4 z2 D2 | A4 A4 | d6 c2 | B4 A2 G2 | F4 G4 | F4 E4 | %35
w: was ge-|ko-|men na(ar)|der Pro-|phe- ten|stem:|geen|moey- ten|zij ont-|za- * *|ghen, noch|kos- ten|
 F6 D2 | A4 A4 | d6 c2 | B4 A2 G2 | F4 G4 | F4 E4 | D8- | D8 |] %43
w: groot, haer|ga- ven|sach men|dra- * *|gen in|hae- ren|schoot.|_|
V:2
 z4 A,4 | D2 C2 F2 E2 | F6 A2 | D2 CB, C4 | D4 B,4 | A,B,CD C3 B, | A,4 z2 F2 | E4 F4 | F6 A2 | %9
w: Een|kin- de- ken is|ons ge-|bo- * * *|ren in|Beth- * * * * le-|'em, des|hadd' He-|ro- des|
 ^G3 F/G/ AG/F/ E2 | A4 D E2 D | C D2 C B,2 C2 | D8 | z4 F4 | F6 F2 | A4 D4 | E8 | ^G4 G2 B2 | %18
w: t'o- * * * * * *|ren, dat _ _|bleek _ _ _ aen|hem,|die|Wij- zen|son- der|schroo-|men qua- men|
 A2 GF E3 A | F4 ^G4 | A8- | A4 F4 | F6 D2 | A4 F4 | E6 F2 | ^G4 G4 | E4 E4 | F4 ^G4 | A8 | %29
w: te _ _ _ Je-|ru- sa-|lem,|_ toen|Je- zus|was ge-|ko- *|men na(ar)|der Pro-|phe- ten|stem:|
 z4 z2 F2 | E4 F4 | F6 A2 | D4 C4 | D6 E2 | FE D4 C2 | D6 B,2 | C6 D2 | B,6 C2 | D2 CB, CA,B,C | %39
w: geen|moey- ten|zij ont-|za- *|ghen, noch|kos- * * ten|groot, haer|ga- ven|sach men|dra- * * * * * *|
 D4 B,4 | A,2 D4 C2 | D8- | D8 |] %43
w: gen in|hae- * ren|schoot.|_|
V:3
 z4 D4 | F2 A2 d2 c2 | B6 A2 | G4 F2 E2 | D4 E4 | FGAB A2 A2 | D4 z2 d2 | c4 d4 | B6 A2 | e3 d c4 | %10
w: Een|kin- de- ken is|ons ge-|bo- * *|ren in|Beth- * * * * le-|'em, des|hadd' He-|ro- des|t'o- * *|
 d4 B =c2 B | A B2 A ^G2 A2 | D8 | z4 d4 | B6 d2 | c4 B4 | A8 | e4 E2 ^G2 | A2 B2 c2 A2 | B4 E4 | %20
w: ren dat _ _|bleek _ _ _ aen|hem,|die|Wij- zen|son- der|schroo-|men qua- men|te _ Je- *|ru- sa-|
 A8- | A4 d4 | B6 B2 | c4 d4 | A8 | e4 E4 | A4 c4 | B4 e4 | A8 | z4 z2 B2 | c4 d4 | B6 F2 | G4 A4 | %33
w: lem|_ toen|Je- zus-|was ge-|ko-|men na(ar)|der Pro-|phe- ten|stem:|geen|moey- ten|zij ont-|za- *|
 B6 c2 | d4 A4 | D6 G2 | F4 F4 | G3 A B2 A2 | G4 F2 E2 | %39
w: ghen, noch|kos- ten|groot, haer|ga- ven|sach _ _ men|dra- * *|
"^Notes: original keys: Sol, Ut1st, Ut 3rd (reprint P.Matthysz 1644)\n            Voice  indication (Matthysz): Bovensang, Neurie, Grontstem\n             Transposed in subsemiditonus (a third lower)" D4 E4 | %40
w: gen in|
 F3 G A2 A2 | D8- | D8 |] %43
w: hae- * * ren|schoot.|_|

